brandFactory_export/3.Masa/Recarga Online_3Masa.svg

<?xml version="1.0" encoding="UTF-8"?>
<svg width="24px" height="24px" viewBox="0 0 24 24" version="1.1" xmlns="http://www.w3.org/2000/svg" xmlns:xlink="http://www.w3.org/1999/xlink">
    <title>3.Masa/Recarga Online_3Masa</title>
    <g id="Symbols" stroke="none" stroke-width="1" fill="none" fill-rule="evenodd">
        <g id="3.Masa/Recarga-Online_3Masa" fill="#5CB615" fill-rule="nonzero">
            <path d="M22.9176471,20.0890756 L0.712605042,20.0890756 C0.342857143,20.0890756 0.0403361345,19.7865546 0.0403361345,19.4168067 C0.0403361345,19.0470588 0.342857143,18.7445378 0.712605042,18.7445378 L22.9176471,18.7445378 C23.287395,18.7445378 23.589916,19.0470588 23.589916,19.4168067 C23.589916,19.7865546 23.287395,20.0890756 22.9176471,20.0890756 L22.9176471,20.0890756 Z M22.6857143,4.17647059 C22.010084,3.40336134 21.0016807,3.01008403 19.6806723,3.01008403 L3.94957983,3.01008403 C2.63193277,3.01008403 1.62016807,3.40336134 0.944537815,4.17647059 C0.319327731,4.89579832 0,5.93781513 0,7.27563025 L0,13.2016807 C0,14.5394958 0.319327731,15.5815126 0.944537815,16.3008403 C1.62016807,17.0739496 2.62857143,17.4672269 3.94957983,17.4672269 L19.6806723,17.4672269 C20.9983193,17.4672269 22.010084,17.0739496 22.6857143,16.3042017 C23.3142857,15.5848739 23.6302521,14.5428571 23.6302521,13.205042 L23.6302521,7.27563025 C23.6302521,5.93781513 23.3109244,4.89579832 22.6857143,4.17647059 Z M9.83529412,11.5915966 C9.80168067,11.7462185 9.77142857,11.9747899 9.74453782,12.1966387 C9.71092437,12.4420168 9.68067227,12.6941176 9.63697479,12.8890756 C9.52941176,13.3831933 9.19327731,13.6655462 8.73277311,13.6655462 C8.6487395,13.6655462 8.56806723,13.6554622 8.48403361,13.6386555 C8.3092437,13.605042 7.97983193,13.5109244 7.43193277,13.3596639 L7.14957983,13.2823529 C6.88067227,13.2084034 6.72268908,12.9294118 6.79663866,12.6605042 C6.87058824,12.3915966 7.14957983,12.2336134 7.41848739,12.307563 L7.70084034,12.3848739 L7.74117647,12.394958 C7.43865546,11.7697479 7.28403361,11.010084 7.28403361,10.1294118 C7.28403361,7.31932773 8.86722689,5.77310924 11.7411765,5.77310924 C12.2453782,5.7697479 12.7462185,5.82352941 13.2369748,5.93781513 C13.5058824,6.01176471 13.6638655,6.28739496 13.5932773,6.55630252 C13.5226891,6.81512605 13.2638655,6.97310924 13.0016807,6.91932773 C12.5882353,6.82521008 12.1647059,6.78151261 11.7411765,6.78487395 C9.42184874,6.78487395 8.29243697,7.88067227 8.29243697,10.1327731 C8.29243697,10.9394958 8.44033613,11.6016807 8.73277311,12.1159664 L8.7394958,12.0588235 C8.7697479,11.8168067 8.80336134,11.5680672 8.84705882,11.3697479 C8.90420168,11.097479 9.1697479,10.9226891 9.44201681,10.9764706 C9.71428571,11.0336134 9.88907563,11.2991597 9.83529412,11.5714286 C9.83865546,11.5848739 9.83865546,11.5848739 9.83529412,11.5915966 L9.83529412,11.5915966 Z M16.8134454,7.7697479 C16.7394958,8.03865546 16.4605042,8.19663866 16.1915966,8.12268908 L15.9092437,8.04537815 L15.8655462,8.03193277 C16.1680672,8.65714286 16.3226891,9.41680672 16.3226891,10.297479 C16.3226891,13.107563 14.7394958,14.6537815 11.8655462,14.6537815 C11.3680672,14.6571429 10.8672269,14.6033613 10.3831933,14.492437 C10.1109244,14.4285714 9.94621849,14.1563025 10.010084,13.8840336 C10.0739496,13.6117647 10.3462185,13.4470588 10.6184874,13.5109244 C11.0285714,13.605042 11.4487395,13.6487395 11.8655462,13.6453782 C14.1848739,13.6453782 15.3142857,12.5495798 15.3142857,10.297479 C15.3142857,9.4907563 15.1663866,8.82857143 14.8739496,8.31428571 L14.8672269,8.37142857 C14.8369748,8.61344538 14.8033613,8.86218487 14.7596639,9.0605042 C14.702521,9.33277311 14.4369748,9.50756303 14.1647059,9.45378151 C13.892437,9.39663866 13.7176471,9.13109244 13.7714286,8.85882353 C13.7714286,8.85546218 13.7714286,8.85210084 13.7747899,8.85210084 C13.8084034,8.69747899 13.8386555,8.46890756 13.8655462,8.24705882 C13.8991597,8.00168067 13.9294118,7.74957983 13.9731092,7.55462185 C14.097479,6.97310924 14.5411765,6.68403361 15.1226891,6.80168067 C15.297479,6.83529412 15.6268908,6.92941176 16.1781513,7.08067227 L16.4605042,7.15798319 C16.7294118,7.22857143 16.887395,7.50420168 16.8134454,7.7697479 L16.8134454,7.7697479 Z" id="Recarga-Online_3Masa"></path>
        </g>
    </g>
</svg>

<svg width="24" height="24" viewBox="0 0 24 24" xmlns="http://www.w3.org/2000/svg"><path d="M22.918 20.09H.713a.674.674 0 01-.673-.673c0-.37.303-.672.673-.672h22.205c.37 0 .672.302.672.672 0 .37-.303.672-.672.672zm-.232-15.914c-.676-.773-1.684-1.166-3.005-1.166H3.95c-1.318 0-2.33.393-3.005 1.166C.319 4.896 0 5.938 0 7.276v5.926c0 1.337.32 2.38.945 3.099.675.773 1.684 1.166 3.005 1.166h15.73c1.318 0 2.33-.393 3.006-1.163.628-.72.944-1.761.944-3.099v-5.93c0-1.337-.32-2.38-.944-3.099zm-12.85 7.416a7.462 7.462 0 00-.091.605c-.034.245-.064.497-.108.692-.108.494-.444.777-.904.777-.084 0-.165-.01-.249-.027-.175-.034-.504-.128-1.052-.28l-.282-.077a.506.506 0 01.268-.974l.283.077.04.01c-.302-.625-.457-1.385-.457-2.266 0-2.81 1.583-4.356 4.457-4.356a6.397 6.397 0 011.496.165c.269.074.427.35.356.618a.507.507 0 01-.591.363 5.484 5.484 0 00-1.26-.134c-2.32 0-3.45 1.096-3.45 3.348 0 .806.148 1.469.44 1.983l.007-.057c.03-.242.064-.49.108-.69a.507.507 0 01.595-.393.507.507 0 01.393.595c.004.014.004.014 0 .02zm6.977-3.822a.506.506 0 01-.621.353l-.283-.078-.043-.013c.302.625.457 1.385.457 2.265 0 2.81-1.584 4.357-4.457 4.357a6.462 6.462 0 01-1.483-.162.503.503 0 11.235-.981c.41.094.83.138 1.248.134 2.319 0 3.448-1.095 3.448-3.348 0-.806-.148-1.468-.44-1.983l-.007.057c-.03.242-.064.491-.107.69a.507.507 0 01-.595.393.507.507 0 01-.39-.602c.033-.155.064-.383.09-.605.034-.245.064-.497.108-.692.124-.582.568-.871 1.15-.753.174.033.504.127 1.055.279l.283.077c.268.07.426.346.352.612z" fill="#5CB615" fill-rule="nonzero"/></svg>
